images/social/deviantart.svg

<svg xmlns="http://www.w3.org/2000/svg" width="185.16" height="300" viewBox="0 0 185.16 300"><defs><style>.a{fill:#333;}</style></defs><title>deviantart</title><path class="a" d="M188.53,0h53.79c.34,18.08,0,36.18.18,54.26-15.82,29.63-31.12,59.54-46.77,89.27-2.65,5.46-5.88,10.7-8.26,16.26,1.44,1.86,3,3.65,4.5,5.44,16.81,0,33.63.08,50.44-.05q.09,37.32,0,74.64c-30.52-.14-61,0-91.55-.08-2.84,1.82-5.7,3.64-8.36,5.72Q129.75,269.78,117,294.07c-1.9,2.06-3.89,4-6,5.93H57.57c-.43-18.18-.1-36.4-.17-54.59Q84,194.54,110.54,143.65c.55-1.17,1.4-2.26,1.5-3.58-1.47-1.73-2.88-3.51-4.32-5.27-16.76-.05-33.53-.11-50.29,0q-.14-37.33,0-74.67c30.49.12,61,.06,91.5,0,2.66-1.82,5.38-3.57,8-5.48C165.63,38.48,174,22,182.69,5.75A70.41,70.41,0,0,1,188.53,0Z" transform="translate(-57.34)"/></svg>

<?xml version="1.0" encoding="UTF-8" ?>
<!DOCTYPE svg PUBLIC "-//W3C//DTD SVG 1.1//EN" "http://www.w3.org/Graphics/SVG/1.1/DTD/svg11.dtd">
<svg width="300pt" height="300pt" viewBox="0 0 300 300" version="1.1" xmlns="http://www.w3.org/2000/svg">
<g>
<path fill="#fff" opacity="1.00" d=" M 188.53 0.00 L 242.32 0.00 C 242.66 18.08 242.30 36.18 242.50 54.26 C 226.68 83.89 211.38 113.80 195.73 143.53 C 193.08 148.99 189.85 154.23 187.47 159.79 C 188.91 161.65 190.44 163.44 191.97 165.23 C 208.78 165.22 225.60 165.31 242.41 165.18 C 242.47 190.06 242.49 214.94 242.40 239.82 C 211.88 239.68 181.36 239.84 150.85 239.74 C 148.01 241.56 145.15 243.38 142.49 245.46 C 134.00 261.67 125.55 277.89 117.02 294.07 C 115.12 296.13 113.13 298.12 111.05 300.00 L 57.57 300.00 C 57.14 281.82 57.47 263.60 57.40 245.41 C 75.13 211.50 92.79 177.55 110.54 143.65 C 111.09 142.48 111.94 141.39 112.04 140.07 C 110.57 138.34 109.16 136.56 107.72 134.80 C 90.96 134.75 74.19 134.69 57.43 134.84 C 57.34 109.95 57.34 85.06 57.43 60.17 C 87.92 60.29 118.43 60.23 148.93 60.21 C 151.59 58.39 154.31 56.64 156.92 54.73 C 165.63 38.48 173.98 22.01 182.69 5.75 C 184.56 3.76 186.44 1.76 188.53 0.00 Z" />
</g>
</svg>
